src/assets/2001.svg

<svg width="2875" height="2758" fill="none" xmlns="http://www.w3.org/2000/svg">
  <g filter="url(#filter0_d)">
    <path d="M1739.18 587.1c-50.62-50.426 96.11-158.769-76.36-207.718C1432.7 314.072 550.25.479 550.25.479L25.604 966.837s321.658 409.833 377.492 471.033c55.834 61.19 528.612 306.57 556.436 322.06 27.825 15.49 121.608-61.16 129.188-17.87 7.58 43.29-130.676 62.09-35.38 162.05 95.3 99.95 249.76 113.65 373.94 170.09 124.17 56.45-142.44 519.69 356.37 599.25 498.81 79.56 436.76-343.78 472.38-406.1 35.61-62.33 143.51 32.92 199.34 0 55.83-32.93 48.35-159.12 113.09-205.43 64.75-46.32 85.02-24.35 171.84-53.44 86.82-29.09 126.21-216.89 101.78-260.72-24.42-43.83-93.01-118.08-105.84-143.01-12.6-24.5-18.38-39.82-32.98-78.62l-.8-2.13c-15.2-40.37 18.83-80.26 53.48-151.99 34.65-71.74 98.2-155.03 6.76-235.71-91.45-80.69-218.4 26.08-273.05-54.03-54.66-80.11 8.29-136.559-113.17-187.62-121.46-51.06-353.96 109.97-403.52 72.187-49.56-37.787 23.61-129.163-10.73-177.849-34.34-48.685-172.44-151.462-223.05-201.888z" fill="#fff"/>
  </g>
  <defs>
    <filter id="filter0_d" x=".604" y=".479" width="2873.61" height="2756.89" filterUnits="userSpaceOnUse" color-interpolation-filters="sRGB">
      <feFlood flood-opacity="0" result="BackgroundImageFix"/>
      <feColorMatrix in="SourceAlpha" values="0 0 0 0 0 0 0 0 0 0 0 0 0 0 0 0 0 0 127 0"/>
      <feOffset dy="49"/>
      <feGaussianBlur stdDeviation="12.5"/>
      <feColorMatrix values="0 0 0 0 0 0 0 0 0 0 0 0 0 0 0 0 0 0 0.25 0"/>
      <feBlend in2="BackgroundImageFix" result="effect1_dropShadow"/>
      <feBlend in="SourceGraphic" in2="effect1_dropShadow" result="shape"/>
    </filter>
  </defs>
</svg>

<svg width="2875" height="2758" viewBox="0 0 2875 2758" fill="none" xmlns="http://www.w3.org/2000/svg">
<g filter="url(#filter0_d)">
<path d="M1739.18 587.1C1688.56 536.674 1835.29 428.331 1662.82 379.382C1432.7 314.072 550.25 0.478516 550.25 0.478516L25.6035 966.837C25.6035 966.837 347.262 1376.67 403.096 1437.87C458.93 1499.06 931.708 1744.44 959.532 1759.93C987.357 1775.42 1081.14 1698.77 1088.72 1742.06C1096.3 1785.35 958.044 1804.15 1053.34 1904.11C1148.64 2004.06 1303.1 2017.76 1427.28 2074.2C1551.45 2130.65 1284.84 2593.89 1783.65 2673.45C2282.46 2753.01 2220.41 2329.67 2256.03 2267.35C2291.64 2205.02 2399.54 2300.27 2455.37 2267.35C2511.2 2234.42 2503.72 2108.23 2568.46 2061.92C2633.21 2015.6 2653.48 2037.57 2740.3 2008.48C2827.12 1979.39 2866.51 1791.59 2842.08 1747.76C2817.66 1703.93 2749.07 1629.68 2736.24 1604.75C2723.64 1580.25 2717.86 1564.93 2703.26 1526.13L2702.46 1524C2687.26 1483.63 2721.29 1443.74 2755.94 1372.01C2790.59 1300.27 2854.14 1216.98 2762.7 1136.3C2671.25 1055.61 2544.3 1162.38 2489.65 1082.27C2434.99 1002.16 2497.94 945.711 2376.48 894.65C2255.02 843.59 2022.52 1004.62 1972.96 966.837C1923.4 929.05 1996.57 837.674 1962.23 788.988C1927.89 740.303 1789.79 637.526 1739.18 587.1Z" fill="white"/>
</g>
<defs>
<filter id="filter0_d" x="0.603516" y="0.478516" width="2873.61" height="2756.89" filterUnits="userSpaceOnUse" color-interpolation-filters="sRGB">
<feFlood flood-opacity="0" result="BackgroundImageFix"/>
<feColorMatrix in="SourceAlpha" type="matrix" values="0 0 0 0 0 0 0 0 0 0 0 0 0 0 0 0 0 0 127 0"/>
<feOffset dy="49"/>
<feGaussianBlur stdDeviation="12.5"/>
<feColorMatrix type="matrix" values="0 0 0 0 0 0 0 0 0 0 0 0 0 0 0 0 0 0 0.25 0"/>
<feBlend mode="normal" in2="BackgroundImageFix" result="effect1_dropShadow"/>
<feBlend mode="normal" in="SourceGraphic" in2="effect1_dropShadow" result="shape"/>
</filter>
</defs>
</svg>
